images/Done.svg

<svg width="24" height="24" viewBox="0 0 24 24" fill="none" xmlns="http://www.w3.org/2000/svg">
<rect y="0.686768" width="24" height="23.2625" rx="4" fill="#F3F3F3"/>
<path d="M7.17224 12.1173C6.7984 11.7691 6.1923 11.7691 5.81846 12.1173C5.44463 12.4654 5.44463 13.0299 5.81846 13.3781L9.20291 16.5301C9.57792 16.8794 10.1863 16.8781 10.5597 16.5273L18.1838 9.36338C18.556 9.01367 18.5533 8.44918 18.1778 8.10257C17.8023 7.75595 17.1962 7.75846 16.824 8.10817L9.87678 14.6361L7.17224 12.1173Z" fill="#333333"/>
</svg>

<svg width="24" height="24" fill="none" xmlns="http://www.w3.org/2000/svg"><rect y=".687" width="24" height="23.262" rx="4" fill="#F3F3F3"/><path d="M7.172 12.117a1.008 1.008 0 0 0-1.354 0 .849.849 0 0 0 0 1.261l3.385 3.152c.375.35.983.348 1.357-.003l7.624-7.164a.849.849 0 0 0-.006-1.26 1.008 1.008 0 0 0-1.354.005l-6.947 6.528-2.705-2.519Z" fill="#333"/></svg>
